X: 1
T: Jesus, Thy Boundless Love To Me
C: Words: Paul Gerhardt, 1653; Translated John Wesley, 1739. 
C: Music: 'Yoakley' William Yoakley, 1820-?.  Setting: Cyberhymnal.org
C: copyright: public domain.  This score is a part of the Open Hymnal Project, 2006 Revision.
S: Music source: cyberhymnal.org
M: 3/4 % time signature
L: 1/4 % default length
%%staves (S1V1 S1V2) | (S2V1 S2V2) 
V: S1V1 clef=treble 
V: S1V2 
V: S2V1 clef=bass 
V: S2V2 
K: E % key signature
%
%%MIDI program 1 0 % Piano 1
%%MIDI program 2 0 % Piano 1
%%MIDI program 3 0 % Piano 1
%%MIDI program 4 0 % Piano 1
%
% 1
[V: S1V1] [Q:1/4=130] E/F/ | G2 G/A/ | (B G) E | (F3/2 G/) A | (A G) E/G/ | B2 c | B2 G | G2 F | F2
w: 1.~Je- * sus, Thy * bound- * less love * to me * No * thought can reach, no tongue de- clare; 
w: 2.~O, * grant that * no- * thing in * my soul * May * dwell but Thy pure love a- lone! 
w: 3.~O * love, how * cheer- * ing is * thy ray! * All * pain be- fore thy pre- sence flies;  
w: 4.~This * love un- * wear- * ied I * pur- sue * And * daunt- less- ly to Thee a- spire. 
w: 5.~My * Sa- vior, * Thou * Thy love * to me * In * shame, in want, in pain, hast showed; 
[V: S1V2]  B, | B,2 E/F/ | (G E) E | E2 D/F/ | (F E) B,/E/ | G2 A | G2 E | E2 E | D2
[V: S2V1]  G,/A,/ | B,2 B,/E/ | (E B,) B, | (C B,) B, | B,2 G,/B,/ | E2 E | E2 B, | C2 ^A, | B,2
[V: S2V2]  E, | E,2 E, | E,2 B,, | (C, D,) D, | E,2 E, | E,2 E, | E,2 E, | C,2 F, | B,,2
% 9
[V: S1V1]  E/F/ | G2 G/A/ | (B G) E | (F3/2 G/) A | (A G) E/G/ | B2 c | B2 G | G2 F | F2
w: U- * nite my * thank- * ful heart * with Thee * And * reign with- out a ri- val there. 
w: Oh, * may Thy * love * pos- sess * me whole, * My * joy, my trea- sure, and my crown! 
w: Care, * an- guish, * sor- * row, melt * a- way * Wher- * e'er thy heal- ing beams a- rise. 
w: Oh, * may Thy * love * my hope * re- new * Burn * in my soul like heav'n- ly fire! 
w: For * me, on * the * a- ccur- * sed tree, * Thou * pour- est forth Thy guilt- less blood; 
[V: S1V2]  B, | B,2 E/F/ | (G E) E | E2 D/F/ | (F E) B,/E/ | G2 A | G2 E | E2 E | D2
[V: S2V1]  G,/A,/ | B,2 B,/E/ | (E B,) B, | (C B,) B, | B,2 G,/B,/ | E2 E | E2 B, | C2 ^A, | B,2
[V: S2V2]  E, | E,2 E, | E,2 G,, | (A,, B,,) B,, | E,2 E, | E,2 E, | E,2 E, | C,2 F, | B,,2
% 17
[V: S1V1]  G | A2 B | c2 B | (B G) E | (G F) B | (e B) c/e/ | (e c) A | G2 F | E2 |]
w: To Thee a- lone, dear Lord, * I live; * My- self * to * Thee, * dear Lord, I give. 
w: All cold- ness from my heart * re- move; * My ev- * ery * act, * word, thought, be love. 
w: O Je- sus, no- thing may * I see, * No- thing * de- * sire * or seek, but Thee! 
w: And day and night be all * my care * To guard * this * sa- * cred treas- ure there. 
w: Thy wounds u- pon my heart * im- press, * Nor aught * shall * the * lov'd stamp ef- face. 
[V: S1V2]  E | E2 E | E2 E | B,2 E | (E D) D | E2 E | E2 F | E2 D | E2 |]
[V: S2V1]  B, | A,2 G, | A,2 G, | (F, E,/F,/) G,/^A,/ | B,2 B, | (B, E) B, | (C E) C | B,2 A, | G,2 |]
[V: S2V2]  E, | C,2 E, | C,2 E, | (D, E,) C, | B,,2 B,/A,/ | G,2 G, | A,2 A,, | B,,2 B,, | E,2 |]
[V: S2V2] 
% 27
W:  6.More hard than marble is my heart,
W:  And foul with sins of deepest stain;
W:  But Thou the mighty Savior art,
W:  Nor flowed thy cleansing blood in vain;
W:  Ah soften, melt this rock, and may
W:  Thy blood wash all these stains away!
W:  
W:  7.O that I, as a little child,
W:  May follow Thee, and never rest
W:  Till sweetly Thou hast breathed Thy mild
W:  And lowly mind into my breast!
W:  Nor ever may we parted be,
W:  Till I become as one with Thee.
W:  
W:  8.Still let Thy love point out my way;
W:  How wondrous things Thy love hath wrought!
W:  Still lead me, lest I go astray;
W:  Direct my word, inspire my thought;
W:  And if I fall, soon may I hear
W:  Thy voice, and know that love is near.
W:  
W:  9.In suffering be Thy love my peace,
W:  In weakness be Thy love my power;
W:  And when the storms of life shall cease,
W:  Jesus, in that important hour,
W:  In death as life be Thou my guide,
W:  And save me, Who for me hast died.

